icons/Models.svg

<?xml version="1.0" encoding="UTF-8"?>
<svg width="18px" height="16px" viewBox="0 0 18 16" version="1.1" xmlns="http://www.w3.org/2000/svg" xmlns:xlink="http://www.w3.org/1999/xlink">
    <title>Models</title>
    <g id="Models" stroke="none" stroke-width="1" fill="none" fill-rule="evenodd">
        <path d="M14.5614449,7.98117647 C14.6994842,7.83058824 14.846726,7.67058824 14.96636,7.52 C16.0062554,6.13647059 16.3007391,4.89411765 15.7945953,4 C15.2884515,3.10588235 14.0921116,2.74823529 12.3988306,2.98352941 C12.2001913,3.01162818 12.0034796,3.05249338 11.8098632,3.10588235 C11.2116933,1.19529412 10.1902031,0 9.02147109,0 C7.85273906,0 6.85885671,1.19529412 6.26068678,3.10588235 C6.07331599,3.05239895 5.88272049,3.01152712 5.69012469,2.98352941 C3.96003318,2.74823529 2.74528808,3.10588235 2.24834691,4 C1.75140573,4.89411765 2.00907893,6.13647059 3.08578482,7.52941176 C3.19621619,7.68 3.35266063,7.84 3.48149723,7.99058824 C2.18392861,9.49647059 1.64097436,10.9741176 2.24834691,12.0094118 C2.83053192,12.8166532 3.79874645,13.2322562 4.76986325,13.0917647 C5.28023797,13.0867617 5.78887004,13.0300135 6.28829462,12.9223529 C6.9140724,14.8047059 7.90795475,16 9.04907893,16 C10.1902031,16 11.2024907,14.8141176 11.8098632,12.9223529 C12.3123094,13.0305719 12.8240482,13.0873228 13.3374972,13.0917647 C14.2952389,13.2142141 15.2426733,12.7963696 15.8130005,12 C16.3835626,10.9647059 15.8682162,9.48705882 14.5614449,7.98117647 Z M12.5276672,3.91529412 C12.7954811,3.87145587 13.0662747,3.84941176 13.3374972,3.84941176 C14.1749351,3.84941176 14.7731051,4.06588235 15.0031704,4.47058824 C15.2332358,4.87529412 15.0031704,5.92 14.2301508,6.94588235 C14.1473273,7.05882353 14.0276933,7.18117647 13.9264646,7.30352941 C13.4448874,6.83767798 12.9346317,6.40384886 12.3988306,6.00470588 C12.3327194,5.33270071 12.222033,4.66606698 12.0675365,4.00941176 C12.2147783,3.98117647 12.3804253,3.93411765 12.5276672,3.91529412 Z M10.2914319,10.2682353 C9.858909,10.5223529 9.43558874,10.7482353 9.01226848,10.9552941 C8.59815083,10.7482353 8.16562795,10.5223529 7.73310508,10.2682353 C7.3005822,10.0141176 6.89566717,9.75058824 6.50915737,9.47764706 C6.50915737,9.00705882 6.45394168,8.53647059 6.45394168,8 C6.45394168,7.46352941 6.45394168,6.99294118 6.50915737,6.52235294 C6.89566717,6.24941176 7.3005822,5.98588235 7.73310508,5.73176471 C8.16562795,5.47764706 8.58894821,5.25176471 9.01226848,5.04470588 C9.43558874,5.25176471 9.86811161,5.47764706 10.2914319,5.73176471 C10.7147521,5.98588235 11.1380724,6.24941176 11.5153796,6.52235294 C11.5153796,6.99294118 11.5705953,7.46352941 11.5705953,8 C11.5705953,8.53647059 11.5705953,9.00705882 11.5153796,9.47764706 C11.1380724,9.75058824 10.7331574,10.0141176 10.2914319,10.2682353 Z M11.3681378,10.6823529 C11.3006519,11.0713725 11.227031,11.4384314 11.147275,11.7835294 C10.8159809,11.6894118 10.4754842,11.5670588 10.1257848,11.4352941 C10.3282423,11.3223529 10.5399025,11.2094118 10.7515626,11.0776471 C10.9632227,10.9458824 11.2116933,10.8141176 11.3773404,10.6823529 L11.3681378,10.6823529 Z M7.90795475,11.4352941 C7.54905279,11.5670588 7.20855606,11.6894118 6.87726194,11.7835294 C6.79750595,11.4384314 6.72388503,11.0713725 6.6563992,10.6823529 C6.85885671,10.8141176 7.06131423,10.9552941 7.27297436,11.0776471 C7.48463449,11.2 7.70549723,11.2941176 7.91715737,11.4352941 L7.90795475,11.4352941 Z M5.56128808,8.73411765 C5.26680442,8.47058824 5.00913122,8.24470588 4.76986325,7.99058824 C5.01833384,7.75529412 5.28520965,7.51058824 5.57969331,7.26588235 C5.57969331,7.51058824 5.57969331,7.75529412 5.57969331,8 C5.57969331,8.24470588 5.55208547,8.47058824 5.56128808,8.73411765 Z M6.66560181,5.29882353 C6.73308765,4.92235294 6.80670856,4.56470588 6.88646455,4.22588235 C7.23877864,4.32339765 7.58588163,4.43963387 7.92635998,4.57411765 C7.71469985,4.68705882 7.4938371,4.79058824 7.28217697,4.92235294 L6.66560181,5.29882353 Z M10.1165822,4.57411765 C10.4570606,4.43963387 10.8041635,4.32339765 11.1564776,4.22588235 C11.2362336,4.56470588 11.3098545,4.92235294 11.3773404,5.29882353 L10.7607652,4.92235294 C10.5491051,4.79058824 10.3374449,4.70588235 10.1165822,4.57411765 L10.1165822,4.57411765 Z M12.4908567,7.26588235 C12.7761378,7.51058824 13.0430136,7.75529412 13.2914842,7.99058824 C13.033811,8.24470588 12.7761378,8.48941176 12.4908567,8.73411765 C12.4908567,8.48941176 12.4908567,8.24470588 12.4908567,8 C12.4908567,7.75529412 12.5000593,7.52941176 12.4908567,7.26588235 L12.4908567,7.26588235 Z M9.02147109,0.941176471 C9.69326194,0.941176471 10.4018632,1.82588235 10.908007,3.32235294 C10.2793768,3.5141389 9.66441315,3.74999145 9.06748416,4.02823529 C8.47067905,3.74968614 7.85569445,3.51382557 7.22696129,3.32235294 C7.64107893,1.82588235 8.34968024,0.941176471 9.02147109,0.941176471 Z M3.04897436,4.47058824 C3.2698371,4.06588235 3.86800704,3.84941176 4.70544495,3.84941176 C4.97666745,3.84941176 5.24746105,3.87145587 5.51527501,3.91529412 C5.66251684,3.91529412 5.8281639,3.98117647 5.97540573,4.00941176 C5.83638907,4.66716256 5.74107741,5.33378515 5.69012469,6.00470588 C5.1385342,6.40221116 4.61287037,6.83607245 4.11647763,7.30352941 L3.84960181,6.94588235 C3.03977174,5.92 2.74528808,4.98823529 3.04897436,4.47058824 Z M3.04897436,11.5294118 C2.70847763,10.9364706 3.10419004,9.86352941 4.11647763,8.70588235 C4.61342595,9.16399136 5.1390933,9.58842373 5.69012469,9.97647059 C5.7600588,10.6610001 5.87380167,11.3401037 6.03062142,12.0094118 C4.47537959,12.3011765 3.38026848,12.1223529 3.04897436,11.5294118 Z M9.02147109,15.0588235 C8.35888286,15.0588235 7.65028155,14.1741176 7.18094821,12.6870588 C7.80990378,12.5000667 8.42497996,12.2673162 9.02147109,11.9905882 C9.61853962,12.2658777 10.2335156,12.4985902 10.861994,12.6870588 C10.3926606,14.1741176 9.69326194,15.0588235 9.02147109,15.0588235 Z M15.0031704,11.5294118 C14.6626737,12.1223529 13.5675626,12.3011765 12.0583338,12.0094118 C12.2196057,11.3410462 12.3334015,10.6616268 12.3988306,9.97647059 C12.9509706,9.57630185 13.4766638,9.13927219 13.9724776,8.66823529 C14.9387521,9.86352941 15.3344646,10.9364706 15.0031704,11.5294118 L15.0031704,11.5294118 Z" id="Shape" fill="#6B778C"></path>
    </g>
</svg>

<?xml version="1.0" encoding="utf-8"?>
<svg xmlns="http://www.w3.org/2000/svg" width="30" height="30" viewBox="0 0 18 16">
<style type="text/css">
	.st0{fill:#FFFFFF;}
</style>
<path class="st0" d="M15,7.5c1-1.4,1.3-2.6,0.8-3.5c-0.5-0.9-1.7-1.3-3.4-1c-0.2,0-0.4,0.1-0.6,0.1C11.2,1.2,10.2,0,9,0
	C7.9,0,6.9,1.2,6.3,3.1C6.1,3.1,5.9,3,5.7,3C4,2.7,2.7,3.1,2.2,4S2,6.1,3.1,7.5C3.2,7.7,3.4,7.8,3.5,8c-1.3,1.5-1.8,3-1.2,4
	c0.6,0.8,1.6,1.2,2.5,1.1c0.5,0,1-0.1,1.5-0.2C6.9,14.8,7.9,16,9,16s2.2-1.2,2.8-3.1c0.5,0.1,1,0.2,1.5,0.2c1,0.1,1.9-0.3,2.5-1.1
	c0.6-1,0.1-2.5-1.3-4C14.7,7.8,14.8,7.7,15,7.5z M3,4.5c0.2-0.4,0.8-0.6,1.7-0.6c0.3,0,0.5,0,0.8,0.1C5.7,3.9,5.8,4,6,4
	C5.8,4.7,5.7,5.3,5.7,6C5.1,6.4,4.6,6.8,4.1,7.3L3.8,6.9C3,5.9,2.7,5,3,4.5z M5.6,7.3c0,0.2,0,0.5,0,0.7s0,0.5,0,0.7
	C5.3,8.5,5,8.2,4.8,8C5,7.8,5.3,7.5,5.6,7.3z M3,11.5c-0.3-0.6,0.1-1.7,1.1-2.8c0.5,0.5,1,0.9,1.6,1.3c0.1,0.7,0.2,1.4,0.3,2
	C4.5,12.3,3.4,12.1,3,11.5z M11.4,5.3l-0.6-0.4c-0.2-0.1-0.4-0.2-0.6-0.3c0.3-0.1,0.7-0.3,1-0.3C11.2,4.6,11.3,4.9,11.4,5.3z M9,0.9
	c0.7,0,1.4,0.9,1.9,2.4C10.3,3.5,9.7,3.8,9.1,4C8.5,3.7,7.9,3.5,7.2,3.3C7.6,1.8,8.3,0.9,9,0.9z M6.9,4.2c0.4,0.1,0.7,0.2,1,0.3
	C7.7,4.7,7.5,4.8,7.3,4.9L6.7,5.3C6.7,4.9,6.8,4.6,6.9,4.2z M6.7,10.7c0.2,0.1,0.4,0.3,0.6,0.4c0.2,0.1,0.4,0.2,0.6,0.4h0
	c-0.4,0.1-0.7,0.3-1,0.3C6.8,11.4,6.7,11.1,6.7,10.7z M9,15.1c-0.7,0-1.4-0.9-1.8-2.4C7.8,12.5,8.4,12.3,9,12
	c0.6,0.3,1.2,0.5,1.8,0.7C10.4,14.2,9.7,15.1,9,15.1z M11.4,10.7c-0.1,0.4-0.1,0.8-0.2,1.1c-0.3-0.1-0.7-0.2-1-0.3
	c0.2-0.1,0.4-0.2,0.6-0.4C11,10.9,11.2,10.8,11.4,10.7C11.4,10.7,11.4,10.7,11.4,10.7L11.4,10.7C11.4,10.7,11.4,10.7,11.4,10.7z
	 M11.5,9.5c-0.4,0.3-0.8,0.5-1.2,0.8C9.9,10.5,9.4,10.7,9,11c-0.4-0.2-0.8-0.4-1.3-0.7C7.3,10,6.9,9.8,6.5,9.5C6.5,9,6.5,8.5,6.5,8
	c0-0.5,0-1,0.1-1.5C6.9,6.2,7.3,6,7.7,5.7C8.2,5.5,8.6,5.3,9,5c0.4,0.2,0.9,0.4,1.3,0.7c0.4,0.3,0.8,0.5,1.2,0.8
	c0,0.5,0.1,0.9,0.1,1.5C11.6,8.5,11.6,9,11.5,9.5z M12.5,3.9c0.3,0,0.5-0.1,0.8-0.1c0.8,0,1.4,0.2,1.7,0.6s0,1.4-0.8,2.5
	c-0.1,0.1-0.2,0.2-0.3,0.4c-0.5-0.5-1-0.9-1.5-1.3c-0.1-0.7-0.2-1.3-0.3-2C12.2,4,12.4,3.9,12.5,3.9z M13.3,8
	c-0.3,0.3-0.5,0.5-0.8,0.7c0-0.2,0-0.5,0-0.7s0-0.5,0-0.7C12.8,7.5,13,7.8,13.3,8z M15,11.5c-0.3,0.6-1.4,0.8-2.9,0.5
	c0.2-0.7,0.3-1.3,0.3-2C13,9.6,13.5,9.1,14,8.7C14.9,9.9,15.3,10.9,15,11.5z"/>
</svg>
